images/icons/line.svg

<svg fill="none" height="24" viewBox="0 0 24 24" width="24" xmlns="http://www.w3.org/2000/svg"><path clip-rule="evenodd" d="m24 10.7381c0-5.36956-5.3831-9.7381-12-9.7381-6.61693 0-12 4.36854-12 9.7381 0 4.814 4.27407 8.8462 10.0351 9.6077.3914.0843.9234.2575 1.0572.5916.1215.3037.0799.7794.0394 1.0854 0 0-.1406.8469-.171 1.0269l-.0045.0256c-.0574.3244-.203 1.1466 1.0438.6222 1.2811-.5387 6.9105-4.0693 9.4277-6.9678 1.7389-1.9065 2.5723-3.8456 2.5723-5.9916zm-3.9928 3.101h-3.3743c-.0597 0-.1169-.0237-.1591-.0659-.0421-.0422-.0658-.0994-.0658-.1591v-5.23571c0-.05966.0237-.11687.0658-.15906.0422-.04219.0994-.06589.1591-.06589h3.3743c.0596 0 .1169.0237.159.06589.0422.04219.0659.0994.0659.15906v.85144c0 .05966-.0237.11688-.0659.15907-.0421.04218-.0994.06588-.159.06588h-2.2912v.88292h2.2912c.0596 0 .1169.0237.159.0659.0422.0422.0659.0994.0659.1591v.8593c0 .0596-.0237.1169-.0659.159-.0421.0422-.0994.0659-.159.0659h-2.2912v.8841h2.2912c.0596 0 .1169.0237.159.0659.0422.0422.0659.0994.0659.159v.8503c.0011.0302-.004.0603-.0148.0886-.0108.0282-.0272.0539-.0482.0756-.021.0218-.0462.039-.074.0508s-.0577.0179-.0879.0179zm-12.31114-.0659c-.04218.0422-.0994.0659-.15906.0659l.00337-.0034h-3.37426c-.05966 0-.11688-.0237-.15906-.0659-.04219-.0422-.06589-.0994-.06589-.159v-5.23351c0-.05966.0237-.11687.06589-.15906.04218-.04219.0994-.06589.15906-.06589h.85482c.05966 0 .11687.0237.15906.06589s.06589.0994.06589.15906v4.16161h2.29112c.05966 0 .11688.0237.15906.0659.04219.0422.06589.0994.06589.159v.8503c0 .0597-.0237.1169-.06589.1591zm1.86991-5.62989h-.85031c-.12673 0-.22945.10273-.22945.22945v5.23684c0 .1267.10272.2295.22945.2295h.85031c.12672 0 .22945-.1028.22945-.2295v-5.23684c0-.12672-.10273-.22945-.22945-.22945zm4.94333 0h.8503c.03-.00001.0596.00596.0872.01754.0276.01159.0526.02856.0735.04993.021.02137.0374.0467.0485.07451.011.02782.0164.05755.0158.08747v5.22334c0 .0597-.0237.1169-.0659.1591s-.0994.0659-.1591.0659h-.8458c-.0204-.0004-.0408-.003-.0607-.0079h-.0158-.0078-.0113l-.0112-.0056h-.0068l-.0135-.009c-.0229-.0157-.0427-.0356-.0585-.0585l-2.3991-3.2393v3.1414c0 .0597-.0237.1169-.0658.1591-.0422.0422-.0994.0659-.1591.0659h-.8514c-.0597 0-.1169-.0237-.1591-.0659s-.0659-.0994-.0659-.1591v-5.23682c0-.05966.0237-.11688.0659-.15907.0422-.04218.0994-.06588.1591-.06588h.8671.0124.009.0135.009.0135.0079.0124.0078l.0124.00675h.0067l.0124.00899h.0068l.0123.01013.0135.01349c.0073.00713.0137.01506.0192.02362l2.3957 3.23589v-3.11104c0-.05966.0237-.11688.0659-.15906.0422-.04219.0994-.06589.159-.06589z" fill="#fff" fill-rule="evenodd"/></svg>

<svg width="24" height="24" viewBox="0 0 24 24" fill="none" xmlns="http://www.w3.org/2000/svg">
<path fill-rule="evenodd" clip-rule="evenodd" d="M24 10.7381C24 5.36854 18.6169 1 12 1C5.38307 1 0 5.36854 0 10.7381C0 15.5521 4.27407 19.5843 10.0351 20.3458C10.4265 20.4301 10.9585 20.6033 11.0923 20.9374C11.2138 21.2411 11.1722 21.7168 11.1317 22.0228C11.1317 22.0228 10.9911 22.8697 10.9607 23.0497L10.9562 23.0753C10.8988 23.3997 10.7532 24.2219 12 23.6975C13.2811 23.1588 18.9105 19.6282 21.4277 16.7297C23.1666 14.8232 24 12.8841 24 10.7381ZM20.0072 13.8391H16.6329C16.5732 13.8391 16.516 13.8154 16.4738 13.7732C16.4317 13.731 16.408 13.6738 16.408 13.6141V8.37839C16.408 8.31873 16.4317 8.26152 16.4738 8.21933C16.516 8.17714 16.5732 8.15344 16.6329 8.15344H20.0072C20.0668 8.15344 20.1241 8.17714 20.1662 8.21933C20.2084 8.26152 20.2321 8.31873 20.2321 8.37839V9.22983C20.2321 9.28949 20.2084 9.34671 20.1662 9.3889C20.1241 9.43108 20.0668 9.45478 20.0072 9.45478H17.716V10.3377H20.0072C20.0668 10.3377 20.1241 10.3614 20.1662 10.4036C20.2084 10.4458 20.2321 10.503 20.2321 10.5627V11.422C20.2321 11.4816 20.2084 11.5389 20.1662 11.581C20.1241 11.6232 20.0668 11.6469 20.0072 11.6469H17.716V12.531H20.0072C20.0668 12.531 20.1241 12.5547 20.1662 12.5969C20.2084 12.6391 20.2321 12.6963 20.2321 12.7559V13.6062C20.2332 13.6364 20.2281 13.6665 20.2173 13.6948C20.2065 13.723 20.1901 13.7487 20.1691 13.7704C20.1481 13.7922 20.1229 13.8094 20.0951 13.8212C20.0673 13.833 20.0374 13.8391 20.0072 13.8391ZM7.69606 13.7732C7.65388 13.8154 7.59666 13.8391 7.537 13.8391L7.54037 13.8357H4.16611C4.10645 13.8357 4.04923 13.812 4.00705 13.7698C3.96486 13.7276 3.94116 13.6704 3.94116 13.6108V8.37729C3.94116 8.31763 3.96486 8.26042 4.00705 8.21823C4.04923 8.17604 4.10645 8.15234 4.16611 8.15234H5.02093C5.08059 8.15234 5.1378 8.17604 5.17999 8.21823C5.22218 8.26042 5.24588 8.31763 5.24588 8.37729V12.5389H7.537C7.59666 12.5389 7.65388 12.5626 7.69606 12.6048C7.73825 12.647 7.76195 12.7042 7.76195 12.7638V13.6141C7.76195 13.6738 7.73825 13.731 7.69606 13.7732ZM9.56597 8.14331H8.71566C8.58893 8.14331 8.48621 8.24604 8.48621 8.37276V13.6096C8.48621 13.7363 8.58893 13.8391 8.71566 13.8391H9.56597C9.69269 13.8391 9.79542 13.7363 9.79542 13.6096V8.37276C9.79542 8.24604 9.69269 8.14331 9.56597 8.14331ZM14.5093 8.14331H15.3596C15.3896 8.1433 15.4192 8.14927 15.4468 8.16085C15.4744 8.17244 15.4994 8.18941 15.5203 8.21078C15.5413 8.23215 15.5577 8.25748 15.5688 8.28529C15.5798 8.31311 15.5852 8.34284 15.5846 8.37276V13.5961C15.5846 13.6558 15.5609 13.713 15.5187 13.7552C15.4765 13.7974 15.4193 13.8211 15.3596 13.8211H14.5138C14.4934 13.8207 14.473 13.8181 14.4531 13.8132H14.4373H14.4295H14.4182L14.407 13.8076H14.4002L14.3867 13.7986C14.3638 13.7829 14.344 13.763 14.3282 13.7401L11.9291 10.5008V13.6422C11.9291 13.7019 11.9054 13.7591 11.8633 13.8013C11.8211 13.8435 11.7639 13.8672 11.7042 13.8672H10.8528C10.7931 13.8672 10.7359 13.8435 10.6937 13.8013C10.6515 13.7591 10.6278 13.7019 10.6278 13.6422V8.40538C10.6278 8.34572 10.6515 8.2885 10.6937 8.24631C10.7359 8.20413 10.7931 8.18043 10.8528 8.18043H11.7199H11.7323H11.7413H11.7548H11.7638H11.7773H11.7852H11.7976H11.8054L11.8178 8.18718H11.8245L11.8369 8.19617H11.8437L11.856 8.2063L11.8695 8.21979C11.8768 8.22692 11.8832 8.23485 11.8887 8.24341L14.2844 11.4793V8.36826C14.2844 8.3086 14.3081 8.25138 14.3503 8.2092C14.3925 8.16701 14.4497 8.14331 14.5093 8.14331Z" fill="white"/>
</svg>
